Origami/24x24/apps/rtt-rstudio.svg

<svg xmlns="http://www.w3.org/2000/svg" width="24" height="24" version="1">
 <rect fill="#cccccc" width="20" height="16" x="-22" y="-20" rx="1" ry="1" transform="matrix(0,-1,-1,0,0,0)"/>
 <path opacity=".2" d="m4 21v0.5c0 0.554 0.446 1 1 1h14c0.554 0 1-0.446 1-1v-0.5c0 0.554-0.446 1-1 1h-14c-0.554 0-1-0.446-1-1z"/>
 <path style="opacity:0.5" d="M 12 5 C 9.2386 5 7 7.2386 7 10 L 7 15 L 12 15 C 14.7614 15 17 12.7614 17 10 C 17 7.2386 14.7614 5 12 5 z M 12 8 C 13.10456 8 14 8.89544 14 10 C 14 11.10456 13.10456 12 12 12 C 10.89544 12 10 11.10456 10 10 C 10 8.89544 10.89544 8 12 8 z"/>
 <path fill="#fff" opacity=".2" d="m5 2c-0.554 0-1 0.446-1 1v0.5c0-0.554 0.446-1 1-1h14c0.554 0 1 0.446 1 1v-0.5c0-0.554-0.446-1-1-1h-14z"/>
 <circle fill="#30a14b" cx="18" cy="18" r="5"/>
 <path style="fill:#ffffff" d="m 15,18.0002 c 0,1.6568 1.3432,3 3,3 1.64,0 2.9702,-1.3166 2.997,-2.9502 A 0.5,0.5 0 0 0 21,18 0.5,0.5 0 0 0 20.5,17.5 0.5,0.5 0 0 0 20,18 c 0,1.1046 -0.89545,2 -2,2 -1.10455,0 -2,-0.89545 -2,-2 0,-1.10455 0.89545,-2 2,-2 l 0,1 2,-1.5 -2,-1.5 0,1 c -1.6568,0 -3,1.3432 -3,3 z"/>
</svg>

<svg width="24" height="24" version="1" xmlns="http://www.w3.org/2000/svg">
 <rect transform="matrix(0,-1,-1,0,0,0)" x="-22" y="-20" width="20" height="16" rx="1" ry="1" fill="#cccccc"/>
 <path d="m4 21v0.5c0 0.554 0.446 1 1 1h14c0.554 0 1-0.446 1-1v-0.5c0 0.554-0.446 1-1 1h-14c-0.554 0-1-0.446-1-1z" opacity=".2"/>
 <path d="m12 5c-2.7614 0-5 2.2386-5 5v5h5c2.7614 0 5-2.2386 5-5s-2.2386-5-5-5zm0 3c1.10456 0 2 0.89544 2 2s-0.89544 2-2 2-2-0.89544-2-2 0.89544-2 2-2z" style="opacity:.5"/>
 <path d="m5 2c-0.554 0-1 0.446-1 1v0.5c0-0.554 0.446-1 1-1h14c0.554 0 1 0.446 1 1v-0.5c0-0.554-0.446-1-1-1h-14z" fill="#fff" opacity=".2"/>
 <circle cx="18" cy="18" r="5" fill="#30a14b"/>
 <path d="m15 18.0002c0 1.6568 1.3432 3 3 3 1.64 0 2.9702-1.3166 2.997-2.9502a0.5 0.5 0 0 0 3e-3 -0.05 0.5 0.5 0 0 0 -0.5 -0.5 0.5 0.5 0 0 0 -0.5 0.5c0 1.1046-0.89545 2-2 2s-2-0.89545-2-2 0.89545-2 2-2v1l2-1.5-2-1.5v1c-1.6568 0-3 1.3432-3 3z" style="fill:#ffffff"/>
</svg>
